X: 581
M: C|
L: 1/8
K: Ddor
V: 1
|: A |\
d>edA d/d/d f2 | Te>dce cdec |
decA d/d/d f2 | Te>dce d/d/d d2 |\
dedA d/d/d  f2 | Te>dce cdec |\
d>ec>d A>cG>A | F>GEd D/D/D D |]
V: 2 clef=bass middle=d
z |\
d2d2 d2d2 | c2c2 c2c2 |\
d2d2 d2d2 | A2A2 D2D :|\
|: z |\
d2d2 d2d2 | c2c2 c2c2 |
d2d2 d2d2 | A2A2 D2D2 |\
d2d2 d2d2 | c2c2 c2c2 |\
d2d2 d2d2 | A2A2 D2D :|

